!!!COM:	la Rue, Pierre de
!!!CDT:	~1452///-1518/11/20
!!!OPR:	Missa Ave Maria
!!!ONM:	5
!!!OTL:	Agnus Dei
!!!AGN:	Mass; Agnus Dei
!!!SCT:	Rue1004e
!!!SCA:	Rue1004e
!!!voices:	4
!!!voices-OPR:	4(-5)
**kern	**kern	**kern	**kern
*staff4	*staff3	*staff2	*staff1
*Ivox	*Ivox	*Ivox	*Ivox
*I"Bassus	*I"Tenor	*I"Contra	*I"Discantus
*I'B	*I'T	*I'C	*I'D
*>[A,B]	*>[A,B]	*>[A,B]	*>[A,B]
*>A	*>A	*>A	*>A
*clefF4	*clefGv2	*clefGv2	*clefG2
*k[]	*k[]	*k[]	*k[]
*M2/1	*M2/1	*M2/1	*M2/1
*met(C)	*met(C)	*met(C)	*met(C)
=1-	=1-	=1-	=1-
!!section: Agnus Dei I
!!!OMD: Agnus Dei I
0c	0r	0r	0r
=2	=2	=2	=2
1G	0r	1r	0r
[1A	.	[1c	.
=3	=3	=3	=3
1A]	0r	1c]	0r
1E	.	1G	.
=4	=4	=4	=4
0F	0r	1A	[0cc
.	.	2.c\	.
.	.	4d\	.
=5	=5	=5	=5
1C	0r	1.e	1cc]
2r	.	.	1g
2C/	.	2e\	.
=6	=6	=6	=6
2.F\	[0c	0f	1a
4G\	.	.	.
[1A	.	.	2.cc\
.	.	.	4dd\
=7	=7	=7	=7
1A]	0c_	2e\	1ee
.	.	1a	.
[1F	.	.	[1ff
.	.	[2f\	.
=8	=8	=8	=8
1F]	0c]	2f\]	1ff]
.	.	2f\	.
[1C	.	[1g	[1ee
=9	=9	=9	=9
1C]	0G	2g\]	1ee]
.	.	2c\	.
1E	.	1g	2r
.	.	.	2ee\
=10	=10	=10	=10
1.F	1A	2f\	2dd\
.	.	2.a\	2.cc\
.	1A	.	.
.	.	4g\	4b\
[2A\	.	2f\	4a/
.	.	.	4g/
=11	=11	=11	=11
1A]	2.c\	2e\	2.a/
.	.	2f\	.
.	4d\	.	4b\
1E	1e	1g	2cc\
.	.	.	[2b\
=12	=12	=12	=12
0D	0f	1r	2b\]
.	.	.	1a
.	.	1d	.
.	.	.	2dd\
=13	=13	=13	=13
2.E\	0e	2.g\	2cc\
.	.	.	2.b\
4F\	.	4f\	.
2G\	.	4e\	.
.	.	4d\	4a/
2A\	.	[2c\	[2a/
=14	=14	=14	=14
1E	0r	2c\]	2a/]
.	.	1B	2g/
2D\	.	.	2f/
2E\	.	[2B\	[2e/
=15	=15	=15	=15
1F	0r	4B\]	2e/]
.	.	4A/	.
.	.	2A/	2d/
1E	.	2B\	2e/
.	.	2c\	2g/
=16	=16	=16	=16
1r	0r	1d	1f
2r	.	2e\	1e
[2E\	.	2c\	.
=17	=17	=17	=17
4E\]	0e	1B	0r
4F\	.	.	.
2G\	.	.	.
2A\	.	1r	.
2E\	.	.	.
=18	=18	=18	=18
2G\	2d\	0r	0r
2A\	2c\	.	.
1F	1d	.	.
=19	=19	=19	=19
1E	1e	2.B\	2.g/
.	.	4c\	4a/
1r	1r	2d\	2b\
.	.	[2e\	2cc\
=20	=20	=20	=20
2.E\	0e	4e\]	2.g/
.	.	4d\	.
.	.	2c\	.
4F\	.	.	4a/
2G\	.	2B\	2b\
2A\	.	2A/	2cc\
=21	=21	=21	=21
2B\	1d	2G/	2dd\
2G\	.	1g	2b\
1A	1c	.	1cc
.	.	2f#i\	.
=22	=22	=22	=22
1.G	0d	1g	1.b
.	.	2g\	.
2F\	.	[2a\	2a/
=23	=23	=23	=23
1D	1d	2a\]	1dd
.	.	4g\	.
.	.	4f\	.
1r	2.A/	2a\	2.cc\
.	.	2e\	.
.	4B\	.	4dd\
=24	=24	=24	=24
1r	2c\	0a	2ee\
.	2d\	.	2ff\
2r	2.A/	.	2.cc\
[2A\	.	.	.
.	4B\	.	4dd\
=25	=25	=25	=25
4A\]	2c\	1a	2ee\
4G\	.	.	.
2F\	2d\	.	2ff\
1E	2e\	1g	2gg\
.	2c\	.	2ee\
=26	=26	=26	=26
0D	1d	2r	1.ff
.	.	1a	.
.	[1A	.	.
.	.	4g\	4ee\
.	.	4f\	4dd\
=27	=27	=27	=27
0r	1A]	2a\	2ff\
.	.	2g\	2.ee\
.	1r	1e	.
.	.	.	4dd\
.	.	.	2cc\
=28	=28	=28	=28
2.D\	0d	2.f\	2b\
.	.	.	1a
4E\	.	4g\	.
2F\	.	2a\	.
2G\	.	2b-i\	[2dd\
=29	=29	=29	=29
2D\	2.d\	2a\	4dd\]
.	.	.	4cc\
1G	.	2g\	4b-i\
.	4c\	.	4a/
.	4d\	2G/	2b-i\
.	4e\	.	.
2F\	[2f\	2A/	2a/
=30	=30	=30	=30
2D\	4f\]	2B-i\	2f/
.	4e\	.	.
2F\	1d	1A	2.a/
1E	.	.	.
.	.	.	4g/
.	2c#i\	2G/	2e/
=31	=31	=31	=31
0D	0d	1A	2f/
.	.	.	2d/
.	.	2r	2.f/
.	.	2a\	.
.	.	.	4g/
=32	=32	=32	=32
2r	0c	2a\	2a/
2F\	.	1f	2g/
2F\	.	.	2r
2F\	.	[2c\	2cc\
=33	=33	=33	=33
1C	1c	4c\]	2cc\
.	.	4d\	.
.	.	4e\	2cc\
.	.	4f\	.
4C/	1c	2.g\	1g
4D\	.	.	.
4E\	.	.	.
4F\	.	4f\	.
=34	=34	=34	=34
2.G\	0B	2d\	4g/
.	.	.	4a/
.	.	2g\	4b\
4F\	.	.	4cc\
2D\	.	2f\	2.dd\
2G\	.	2e\	.
.	.	.	4cc\
=35	=35	=35	=35
2F\	1c	2f\	4a/
.	.	.	4b\
1A	.	2e\	1cc
.	2c\	1f	.
4G\	[2d\	.	4b\
4F\	.	.	4a/
=36	=36	=36	=36
2G\	2d\]	0e	2b\
2A\	2A/	.	1a
1E	1B	.	.
.	.	.	2g/
=37	=37	=37	=37
2r	1A	2r	2a/
2A\	.	2A/	2cc\
2G\	[1e	2B\	2b\
[2A\	.	2c\	2a/
=38	=38	=38	=38
2A\]	1e]	1A	2cc\
4G\	.	.	4b\
4F\	.	.	4a/
1E	2r	1B	4g/
.	.	.	4a/
.	2e\	.	4b\
.	.	.	4cc\
=39	=39	=39	=39
1r	2d\	1r	2b\
.	2c\	.	2e/
2r	2.e\	2r	1g
2E\	.	2e\	.
.	8d\L	.	.
.	8c\J	.	.
=40	=40	=40	=40
1.G	4B\	2d\	4g/
.	4c\	.	4a/
.	4d\	2.B\	4b\
.	4e\	.	4cc\
.	2d\	.	2.b\
.	.	4c\	.
2G\	2G/	2d\	.
.	.	.	4a/
=41	=41	=41	=41
2A\	2r	2c\	2a/
2E\	2B\	1B	2g/
1F	2d\	.	1a
.	2d\	2A/	.
=42	=42	=42	=42
2E\	1e	2B\	2g/
1A	.	2A/	1cc
.	2A/	1e	.
2G\	2B\	.	[2b\
=43	=43	=43	=43
2F\	2c\	1f	4b\]
.	.	.	4a/
2D\	2d\	.	1a
1E	1B	[1e	.
.	.	.	2g#i/
=44	=44	=44	=44
0AAl	0Al	1e]	0al
.	.	1el	.
!!LO:LB:i:g=z
=45||	=45||	=45||	=45||
*>B	*>B	*>B	*>B
*clefF4	*clefGv2	*clefGv2	*clefG2
*k[]	*k[]	*k[]	*k[]
*M2/1	*M2/1	*M2/1	*M2/1
*met(C2)	*met(C2)	*met(C2)	*met(C2)
!!section: Agnus Dei II
!!!OMD: Agnus Dei II
0r	1c	0r	0r
.	2B\	.	.
.	2G/	.	.
=46.	=46.	=46.	=46.
1F	1A	0r	0r
2E\	1e	.	.
2C/	.	.	.
=47	=47	=47	=47
1D	[0f	0r	0r
1A	.	.	.
=48.	=48.	=48.	=48.
2B-i\	0f]	0r	0r
1A	.	.	.
2F\	.	.	.
=49	=49	=49	=49
2G\	0e	0r	0r
2.A\	.	.	.
4G\	.	.	.
2G\	.	.	.
=50.	=50.	=50.	=50.
2A\	2r	0r	0r
2.c\	1e	.	.
4B\	.	.	.
2B\	2d\	.	.
=51	=51	=51	=51
4c\	2e\	0r	0r
4B\	.	.	.
4A\	1g	.	.
4G\	.	.	.
1A	.	.	.
.	2f\	.	.
=52.	=52.	=52.	=52.
1G	4g\	0r	0r
.	4f\	.	.
.	4e\	.	.
.	4d\	.	.
2r	1e	.	.
[2G\	.	.	.
=53	=53	=53	=53
2G\]	2d\	0r	0r
2F\	2f\	.	.
4G\	2e\	.	.
4F\	.	.	.
4E\	[2d\	.	.
4D\	.	.	.
=54.	=54.	=54.	=54.
1E	2d\]	0r	0r
.	2c\	.	.
2D\	2.d\	.	.
[2F\	.	.	.
.	4c\	.	.
=55	=55	=55	=55
4F\]	4d\	0r	0r
4E\	4c\	.	.
1A	4B\	.	.
.	4A/	.	.
.	1B	.	.
2G\	.	.	.
=56.	=56.	=56.	=56.
2A\	2A/	0r	1cc
2F\	1c	.	.
1G	.	.	2b\
.	[2B\	.	2g/
=57	=57	=57	=57
2F\	2B\]	1f	1a
2D\	1A	.	.
1E	.	2e\	1ee
.	2G/	2c\	.
=58.	=58.	=58.	=58.
[0D	0A	1d	[0ff
.	.	1a	.
=59	=59	=59	=59
0D]	0r	2b-i\	0ff]
.	.	1a	.
.	.	2f\	.
=60.	=60.	=60.	=60.
0r	0r	2g\	1ee
.	.	2.a\	.
.	.	.	2r
.	.	4g\	.
.	.	2g\	2ee\
=61	=61	=61	=61
0r	0r	0a	2ff\
.	.	.	1ee
.	.	.	2cc\
=62.	=62.	=62.	=62.
0r	0r	2r	2dd\
.	.	2.a\	1ee
.	.	4g\	.
.	.	2f\	2dd\
=63	=63	=63	=63
0r	0r	2e\	2.ee\
.	.	1a	.
.	.	.	4dd\
.	.	.	2cc\
.	.	[2g\	2b\
=64.	=64.	=64.	=64.
0r	0r	4g\]	1ee
.	.	4f\	.
.	.	4e\	.
.	.	4d\	.
.	.	2c\	2ee\
.	.	[2g\	[2dd\
=65	=65	=65	=65
0r	1r	2g\]	4dd\]
.	.	.	4cc\
.	.	2f\	4b\
.	.	.	4a/
.	1e	[1g	2g/
.	.	.	[2b\
=66.	=66.	=66.	=66.
0r	2e\	2g\]	4b\]
.	.	.	4a/
.	2.d\	2f\	4b\
.	.	.	4cc\
.	.	2d\	2.dd\
.	4c\	.	.
.	4B\	[2g\	.
.	4A/	.	4cc\
=67	=67	=67	=67
0r	2G/	4g\]	4b\
.	.	4f\	4a/
.	2A/	1e	1a
.	1B	.	.
.	.	2d\	2g#i/
=68.	=68.	=68.	=68.
1r	0A	[0e	0a
1A	.	.	.
=69	=69	=69	=69
2A\	1r	0e]	0r
2.G\	.	.	.
.	1e	.	.
4F\	.	.	.
4E\	.	.	.
4D\	.	.	.
=70.	=70.	=70.	=70.
2C/	2e\	0r	0r
1G	2.d\	.	.
.	4c\	.	.
2F\	4B\	.	.
.	4A/	.	.
=71	=71	=71	=71
2G\	2G/	0r	0r
2D\	1d	.	.
1E	.	.	.
.	2c\	.	.
=72.	=72.	=72.	=72.
2D\	2d\	0r	0r
2.F\	4c\	.	.
.	4B\	.	.
.	2A/	.	.
4E\	.	.	.
[2A\	[2c\	.	.
=73	=73	=73	=73
4A\]	4c\]	1r	0r
4E\	4B\	.	.
2G\	1e	.	.
1F	.	1a	.
.	2d\	.	.
=74.	=74.	=74.	=74.
0E	0e	2g\	1r
.	.	2.g\	.
.	.	.	1ee
.	.	4f\	.
.	.	4e\	.
.	.	4d\	.
=75	=75	=75	=75
0r	0r	2c\	2ee\
.	.	2.g\	2.dd\
.	.	4f\	4cc\
.	.	2f\	4b\
.	.	.	4a/
=76.	=76.	=76.	=76.
0r	0r	4g\	2g/
.	.	4f\	.
.	.	4e\	1dd
.	.	4d\	.
.	.	1e	.
.	.	.	2cc\
=77	=77	=77	=77
0r	0r	2d\	2dd\
.	.	2.f\	4cc\
.	.	.	4b\
.	.	.	4a/
.	.	4e\	4b\
.	.	[2a\	[2cc\
=78.	=78.	=78.	=78.
0r	1e	2a\]	2cc\]
.	.	4g\	4b\
.	.	4f\	4a/
.	1e	1g	1b
=79	=79	=79	=79
1r	2c\	0a	1a
.	2.d\	.	.
1D	.	.	1r
.	4c\	.	.
.	2A/	.	.
=80.	=80.	=80.	=80.
1G	2.B\	0r	0r
.	4c\	.	.
2.G\	2d\	.	.
.	[2e\	.	.
4F\	.	.	.
=81	=81	=81	=81
4G\	2e\]	0r	0r
4F\	.	.	.
4E\	1d	.	.
4D\	.	.	.
1E	.	.	.
.	2c\	.	.
=82.	=82.	=82.	=82.
1D	2d\	1a	0r
.	4f\	.	.
.	4e\	.	.
[1F	4d\	1a	.
.	4c\	.	.
.	[2d\	.	.
=83	=83	=83	=83
2F\]	4d\]	2f\	0r
.	4G/	.	.
2E\	1c	2.g\	.
1D	.	.	.
.	.	4f\	.
.	2B\	2d\	.
=84.	=84.	=84.	=84.
0C	0c	2.e\	1ee
.	.	4f\	.
.	.	2g\	1ee
.	.	[2a\	.
=85	=85	=85	=85
0r	0r	2a\]	2cc\
.	.	1g	2.dd\
.	.	.	4cc\
.	.	2f\	2a/
=86.	=86.	=86.	=86.
0r	0r	1g	2.b\
.	.	.	4cc\
.	.	2.g\	4dd\
.	.	.	4b\
.	.	.	[2ee\
.	.	4f\	.
=87	=87	=87	=87
0r	0r	4g\	2ee\]
.	.	4f\	.
.	.	4e\	1dd
.	.	4d\	.
.	.	1e	.
.	.	.	2cc\
=88.	=88.	=88.	=88.
0r	0r	2d\	2.ff\
.	.	1g	.
.	.	.	4ee\
.	.	.	2ee\
.	.	[2f\	4dd\
.	.	.	4cc\
=89	=89	=89	=89
1r	0r	4f\]	4b\
.	.	4c\	4a/
.	.	2e\	1cc
1G	.	1d	.
.	.	.	2b\
=90.	=90.	=90.	=90.
1.A	1e	0c	0cc
.	1f	.	.
2F\	.	.	.
=91	=91	=91	=91
2G\	2e\	0r	0r
2A\	2c\	.	.
2F\	2d\	.	.
2G\	[2e\	.	.
=92.	=92.	=92.	=92.
1A	2e\]	0r	0r
.	2c\	.	.
2F\	2d\	.	.
2G\	[2e\	.	.
=93	=93	=93	=93
2A\	4e\]	0r	0r
.	4f\	.	.
2G\	4g\	.	.
.	4e\	.	.
1B-i	2f\	.	.
.	2d\	.	.
=94.	=94.	=94.	=94.
1A	2f\	0r	0r
.	2.e\	.	.
1E	.	.	.
.	4d\	.	.
.	2B\	.	.
=95	=95	=95	=95
1F	2A/	1r	1r
.	2.c\	.	.
1C	.	1g	2r
.	4B\	.	.
.	2G/	.	2cc\
=96.	=96.	=96.	=96.
2.G\	1B	1g	2dd\
.	.	.	2.ee\
4F\	.	.	.
1E	1c	1g	.
.	.	.	4ff\
.	.	.	4gg\
.	.	.	4ee\
=97	=97	=97	=97
1D	1d	2f\	2ff\
.	.	1a	2dd\
1r	1A	.	2ff\
.	.	4g\	[2ee\
.	.	4f\	.
=98.	=98.	=98.	=98.
1G	2r	2e\	4ee\]
.	.	.	4dd\
.	2B\	2d\	2b\
1F	2.c\	2f\	2a/
.	.	2a\	[2cc\
.	4d\	.	.
=99	=99	=99	=99
1C	4e\	2.g\	4cc\]
.	4f\	.	4b\
.	1g	.	4g/
.	.	4f\	4a/
2.G\	.	2e\	4b\
.	.	.	4cc\
.	4f\	2d\	[2dd\
4A\	4e\	.	.
=100.	=100.	=100.	=100.
2B\	2d\	0g	2dd\]
2c\	2e\	.	1cc
1G	1d	.	.
.	.	.	2b\
=101	=101	=101	=101
1C	1c	2r	2cc\
.	.	1g	1ee
[1G	[1B	.	.
.	.	4f\	[2dd\
.	.	4e\	.
=102.	=102.	=102.	=102.
1G]	1B]	1d	4dd\]
.	.	.	4cc\
.	.	.	4b\
.	.	.	4a/
1A	[1e	2.c\	2.cc\
.	.	4d\	4b\
=103	=103	=103	=103
0E	2e\]	1e	4b\
.	.	.	4a/
.	4d\	.	1a
.	4c\	.	.
.	1B	2r	.
.	.	[2e\	2g/
=104.	=104.	=104.	=104.
2r	1A	4e\]	2a/
.	.	4d\	.
2.A\	.	1c	2e/
.	1r	.	2f/
4G\	.	.	.
2G\	.	2B\	2g/
=105	=105	=105	=105
2A\	2r	4c\	4e/
.	.	4d\	4f/
2E\	2B\	4e\	4g/
.	.	8d\L	8f/L
.	.	8e\J	8g/J
1A	4c\	2f\	4a/
.	4d\	.	4b\
.	4e\	2e\	4cc\
.	8d\L	.	8b\L
.	8e\J	.	8cc\J
=106.	=106.	=106.	=106.
1D	2.f\	2.a\	2.dd\
.	4e\	4g\	4cc\
2D\	4d\	4f\	4b\
.	4c\	4e\	4a/
[2G\	4d\	[2g\	[2b\
.	4c\	.	.
=107	=107	=107	=107
2G\]	4d\	4g\]	2b\]
.	4c\	4f\	.
2A\	4B\	4e\	1a
.	4A/	4d\	.
1E	1B	1e	.
.	.	.	2g#i/
=108.	=108.	=108.	=108.
1r	[0Al	[0el	[0al
1AA	.	.	.
=109	=109	=109	=109
0AAl	0A]	0e]	0a]
==	==	==	==
*-	*-	*-	*-
!!!RDF**kern: l=long note in original notation
!!!RDF**kern: i=editorial accidental
!!!ENC:	Chris Gage 12-06-2012
!!!END:	2013/05/24/
!!!EED:	Jesse Rodin
!!!EEV:	2013/07/19/
!!!ONB:	Translated from MusicXML and edited on 2013/07/19/ by Craig Sapp
!!muse2ps: T^@{OPR}^u^@{ONM}{. }@{OTL}^C^@{COM}^i2I150v85,85,85,150Q16
